X:1
T:Title
%%score { ( 1 3 5 ) | ( 2 4 ) }
L:1/8
M:3/4
K:F
V:1 treble nm="Grand Piano"
V:3 treble 
V:5 treble 
V:2 bass 
V:4 bass 
V:1
 z2 z2[Q:1/4=82] CF | z F AG z d | c4 z2 | EE z G cG |[M:2/4] A4 |[M:1/4] CF |[M:3/4] z F AG z d | %7
 c4 z2 | G4 .[A,F]2 |[M:2/4] F-[F,B,DF-] [F,A,CF]2 |[M:1/4] cc |[M:3/4] c4 .d2 | B4 z2 | B4 .c2 | %14
[M:2/4] A4 |[M:1/4] CF |[M:3/4] z F A[FA] F-[Fc] | d-[Fd-] [Fd]2 BA | G4 .[A,F]2 | %19
[M:2/4] F-[F,B,DF-] [F,A,CF]2 |] %20
V:2
 z6 | [F,C][F,D] C[B,F] A,B, | [F,A,F][C,G,] [F,A,]2 z2 | z2 .G,2 .G,2 | %4
[M:2/4] [F,CF][F,D] [F,C]2 |[M:1/4] z2 |[M:3/4] [F,C][F,D] C[B,F] A,B, | [F,A,F][C,G,] [F,A,]2 z2 | %8
 z2 z2 C,2 |[M:2/4] F,,F,, F,,2 |[M:1/4] z2 | %11
[M:3/4][K:treble] [G,B,F][G,B,][K:bass] [A,C][F,B,] A,[K:treble]D | [G,DG][G,D] [G,D]2 z2 | %13
 [G,CE][E,C] [C,C]2 G,C |[M:2/4] [F,CF][F,D] [F,C]2 |[M:1/4] z2 | %16
[M:3/4] [F,C][F,D] C-[_E,C] D,[C,A,] | [B,,B,][B,,B,] [B,,B,]2 z2 | z2 z2 C,2 | %19
[M:2/4] F,,F,, F,,2 |] %20
V:3
 x6 | A2 z2 F2 | z E F2 BA | G4 z2 |[M:2/4] z F F2 |[M:1/4] x2 |[M:3/4] A2 z2 F2 | z E F2 BA | %8
 [B,D][A,D] [G,D][B,D] C-[CE] |[M:2/4] .[F,A,C]2 z2 |[M:1/4] x2 |[M:3/4] z E z A ^F-[FA] | %12
 z G G2 BB | z E z G E-[EG] |[M:2/4] z F F2 |[M:1/4] x2 |[M:3/4] A2 z2 .[B,B]2 | .F2 z2 z2 | %18
 [B,D][A,D] [G,D][B,D] C-[CE] |[M:2/4] .[F,A,C]2 z2 |] %20
V:4
 x6 | z2 F,2 F,2 | x6 | [C,B,][C,A,] C,-[C,C] C,-[C,C] |[M:2/4] x4 |[M:1/4] x2 | %6
[M:3/4] z2 F,2 F,2 | x6 | B,,B,, B,,G,, z G, |[M:2/4] x4 |[M:1/4] x2 | %11
[M:3/4][K:treble] z2[K:bass] z2 D,2[K:treble] | x6 | z2 z2 C,2 |[M:2/4] x4 |[M:1/4] x2 | %16
[M:3/4] z2 .F,2 z2 | x6 | B,,B,, B,,G,, z G, |[M:2/4] x4 |] %20
V:5
 x6 | x6 | x6 | z2 E2 E2 |[M:2/4] x4 |[M:1/4] x2 |[M:3/4] x6 | x6 | x6 |[M:2/4] x4 |[M:1/4] x2 | %11
[M:3/4] z2 F2 z2 | x6 | z2 E2 z2 |[M:2/4] x4 |[M:1/4] x2 |[M:3/4] x6 | x6 | x6 |[M:2/4] x4 |] %20

